X: 21073
M: 2/4
L: 1/16
K: Bb
V: 1 name="6"
f2 |\
f6 ed | e2c2c2d2 | B2B2B2c2 | c6 fe |\
d2de f2ed | c2F2 F2EG | ABcd efga | b4 z2 |]
|: AB |\
cd c4 f2 | cd c4 A2 | Bc B4 =e2 | g3f =edcB |\


